!!!COM: Scriabin, Alexander
!!!OTL: Prelude
!!!OPR: 5 Preludes
!!!OPS: 16
!!!ONM: 4
!!!ODT: 1895
!!!AGN: Prelude
**kern	**kern	**dynam
*staff2	*staff1	*staff1/2
*Ipiano	*Ipiano	*
*clefF4	*clefG2	*
*k[b-e-a-d-g-c-]	*k[b-e-a-d-g-c-]	*
*e-:	*e-:	*
*M3/4	*M3/4	*
=1	=1	=1
2.r	4b-	.
.	8a-L	.
.	8b-J	.
.	12dd-L	.
.	12.cc-	.
.	24g-Jk	.
=2	=2	=2
2.r	4a-	.
.	8g-L	.
.	8a-J	.
.	12cc-L	.
.	12.b-	.
.	24e-Jk	.
=3	=3	=3
4EE- 4BB- 4E-	4G- 4B- 4e- 4g-	.
4EE- 4BB- 4E-	4G- 4B- 4e- 4g-	.
4EE- 4BB- 4E-	4G- 4B- 4e- 4g-	.
=4	=4	=4
*	*^	*
2DD- 2D-	4a-	2A- 2d- 2f	.
.	8g-L	.	.
.	8a-J	.	.
4GG- 4D-	12cc-L	4B- 4f	.
.	12.b-	.	.
.	24fJk	.	.
=5	=5	=5	=5
2CC- 2C-	4g-	2B- 2e-	.
.	8fL	.	.
.	8g-J	.	.
4FF 4C-	12b-L	4A- 4e-	.
.	12.a-	.	.
.	24e-Jk	.	.
*	*v	*v	*
=6	=6	=6
4BBB- 4BB-	4F 4B- 4dn 4f	.
4BBB- 4BB-	4F 4B- 4d 4f	.
4BBB- 4BB-	4F 4B- 4d 4f	.
=7	=7	=7
*	*^	*
2AAA- 2AA-	4g-	2G- 2c- 2e-	.
.	8fL	.	.
.	8g-J	.	.
8DD-L 8D-	12a-L	4d- 4f	.
.	12.b-	.	.
8CC-J 8C-	.	.	.
.	24cc-Jk	.	.
=8	=8	=8	=8
4BBB- 4BB-	4dd-	4f-X 4a-	.
4AAA- 4AA-	8ee-L	4f- 4cc-	.
.	8ff-XJ	.	.
8.GGGnL 8.GGn	12ee-L	8.f-L 8.b-	.
.	12.dd-	.	.
16AAA-Jk 16AA-	.	16f-Jk 16a-	.
.	24cc-Jk	.	.
*	*v	*v	*
=9	=9	=9
4AA- 4F-X	4c- 4f-X 4cc-	.
4AAn 4G-X	4c- 4e- 4cc-	.
4AA 4G-	4c- 4e- 4cc-	.
=10	=10	=10
*	*^	*
4BB- 4G-	4B- 4b-	8e-	.
.	.	8rc	.
4r	8a-L	4rc	.
.	8b-J	.	.
4r	12dd-L	4rc	.
.	12.cc-	.	.
.	24g-Jk	.	.
*	*v	*v	*
=11	=11	=11
2.r	4a-	.
.	8g-L	.
.	8a-J	.
.	12cc-L	.
.	12.b-	.
.	24e-Jk	.
=12	=12	=12
4EE- 4BB- 4E-	4G- 4B- 4e- 4g-	.
4EE- 4BB- 4E-	4G- 4B- 4e- 4g-	.
4EE- 4BB- 4E-	4G- 4B- 4e- 4g-	.
==	==	==
*-	*-	*-
!!!system-decoration: {(*)}
!!!ENC: Bryan Jacob Bell
!!!END: November 2021 to April 2022
!!!PED: Günter Philipp
!!!PTL: Ausgewählte Klavierwerke (Edition Peters)
